X: 15164
T: Gigue Du Commerce
R: jig
M: 6/8
K: Gmajor
|:B3 BAG|c2c efg|d2B BAG|FAA AFD|
G2B BAG|c2e efg|d2g fed|1 cBA GDG:|2 cBA GBd||
|:e2c efg|d2B B2d|e2c efg|bag fed|
e2c efg|d2B B2g|fed cBA|1 G4 Bd:|2 G4 DG||

